X:1703
L:1/4
M:3/4
K:Dmix
 D D (E/F/) | A{A} F B | A F (E/F/) | A{A} F d | D D (D/E/4F/4) | A F d | A F (G/F/) |{F} E2 D | 
 d A B | A F (E/D/) | d A B | d3/2 e/ f3/4 e/4 |{e} d A (B/>A/) | A3/2 F/ d3/4 B/4 | A D (G/F/) | 
{F} E2 D |]

